assets/Unicorn/Flat/unicorn_flat.svg

<svg width="32" height="32" viewBox="0 0 32 32" fill="none" xmlns="http://www.w3.org/2000/svg">
<path d="M5.39832 4.67964L5.48267 3.86398L6.28116 3.76245L8.58007 5.39733L8.36667 6.49762L7.15604 6.87677L5.39832 4.67964Z" fill="#00D26A"/>
<path d="M8.70516 8.81318L7.15601 6.87676L8.58003 5.39734L10.6062 6.83823L10.0201 8.09668L8.70516 8.81318Z" fill="#468CFB"/>
<path d="M6.29293 3.77084L5.4073 4.69091L3.87108 2.77066C3.65371 2.49895 3.99564 2.13711 4.2792 2.33876L6.29293 3.77084Z" fill="#F9C23C"/>
<path d="M10.5541 6.80109L13.2094 8.68943C14.2921 11.3363 12.1453 11.7342 10.9366 11.6023L8.66534 8.76328L10.5541 6.80109Z" fill="#8D65C5"/>
<path d="M11.5 6.78135C12.7187 5.17841 18.158 4.25233 15.108 7.21233C13.298 8.97233 14.0544 10.8438 11.7344 11.8438C7.82812 13.3281 6.6875 10.1252 7.09375 9.71884C7.5 9.3125 8.41061 10.1824 9.5156 9.71884C10.2024 9.43073 10.2813 8.38429 11.5 6.78135Z" fill="#5092FF"/>
<path d="M5.78353 23.3498L14.4035 21.4698C14.5525 21.4338 14.703 21.3929 14.8546 21.3474C11.2948 25.4285 10.848 29.9844 10.848 29.9844H26.178C28.318 29.9844 29.998 27.9023 29.798 25.7623C29.2 19.4435 27.0127 7.81051 18.9693 7.73269C17.3618 6.50811 15.5018 6.21154 14.3835 7.3298C10.9657 10.7476 7.75745 14.3057 5.58902 16.7106C4.91512 17.458 4.34164 18.094 3.89353 18.5798C2.00353 20.6287 2.44353 22.3098 4.11353 23.1598C4.62353 23.4198 5.22353 23.4698 5.78353 23.3498Z" fill="#EFD5FF"/>
<path d="M29.9062 16.9688C29.9062 13.3125 27.5833 12.7604 26.6875 12.7812C26.8854 13.5729 26.9687 16.0812 25.7187 19.7812C24.4687 23.4812 25.5 28.25 26.1875 30C28.8594 30 29.9062 29.6562 29.9062 27.7188V16.9688Z" fill="#FF6DC6"/>
<path d="M27.375 17.2812C28.4375 13.2812 25.5 9.125 23.1875 9.125C24 10.9792 24.5 15.3438 23.1875 17.4688C21.6918 19.8904 21.4531 26.5 22.2031 30H26.9531C25.2531 25.175 26.3125 21.2812 27.375 17.2812Z" fill="#C790F1"/>
<path d="M14.9062 21.2813C22.625 14.875 18.5625 9.3125 13.4688 8.2501C20.6562 2.78126 22.3333 13.6667 21.0625 17.375C18.9062 19.6875 14.9062 21.2813 14.9062 21.2813Z" fill="#BCA4EB"/>
<path d="M22.7969 29.9844H16.1719C14.5819 23.2244 19.9681 18.7223 20.3281 13.6823C20.7281 7.95233 16.5881 6.89233 16.5881 6.89233C15.2681 7.22233 17.5981 8.14232 15.0081 8.14232L14.3281 6.69233L13.6406 5.5624C15.2806 5.1124 17.4828 4.73543 20 5.96872C23.0994 7.48722 25.7531 11.4568 24.6875 15.5312C23.625 19.5938 21.1094 22.5233 22.7969 29.9844Z" fill="#5092FF"/>
<path d="M22.7969 29.9844H21.3837C21.0524 28.9835 20.7758 27.3759 20.8126 25.5C20.8694 22.6018 21.4946 20.9953 22.9701 17.2039C23.1173 16.8256 23.2731 16.4253 23.4375 16C24.8875 12.25 22.7292 8.5 21.75 7.25L21.9145 7.27351C24.0729 9.20846 25.5227 12.3377 24.6875 15.5312C24.431 16.5121 24.0898 17.4268 23.7434 18.3553C22.6553 21.2725 21.5168 24.3246 22.7969 29.9844Z" fill="#8D65C5"/>
<path d="M27.375 17.2812C27.9045 15.288 27.4407 13.256 26.5559 11.7188H26.5C26.5499 12.0009 26.6154 12.3001 26.6841 12.6141C26.9883 14.0039 27.3561 15.6844 26.7188 17.4688L26.715 17.4793C25.8908 19.787 24.2507 24.379 24.6563 26.9688C24.8708 28.3388 25.2795 29.4485 25.5226 30H26.9531C25.2672 25.2149 26.2952 21.3458 27.3486 17.3806L27.375 17.2812Z" fill="#8D65C5"/>
<path d="M15.578 9.01565C13.7188 9.26562 13.1938 8.3125 13.0781 6.5625C12.9625 4.8125 12.9906 4.30127 12.9906 4.30127C12.9906 3.96127 13.4006 3.79127 13.6406 4.03127C13.6406 4.03127 16.9219 6.625 17.0625 7.5625C17.2031 8.5 16.3529 8.91147 15.578 9.01565Z" fill="#EFD5FF"/>
<path d="M12 12C11.4477 12 11 12.4477 11 13V14C11 14.5523 11.4477 15 12 15C12.5523 15 13 14.5523 13 14V13C13 12.4477 12.5523 12 12 12Z" fill="#1C1C1C"/>
<path d="M4.91055 20.3011C4.61055 20.6011 4.11055 20.6011 3.81055 20.3011L4.91055 19.201C5.21055 19.511 5.21055 20.001 4.91055 20.3011Z" fill="#1C1C1C"/>
<path d="M8.68666 22.7166L6.82288 23.1231C7.59738 22.8219 8.08313 22.0042 7.93656 21.1512C7.88869 20.8726 8.07574 20.608 8.35434 20.5601C8.63294 20.5122 8.8976 20.6993 8.94548 20.9779C9.05126 21.5935 8.94774 22.1975 8.68666 22.7166Z" fill="#1C1C1C"/>
</svg>

<svg xmlns="http://www.w3.org/2000/svg" width="32" height="32" fill="none"><path fill="#00D26A" d="m5.398 4.68.085-.816.798-.102 2.3 1.635-.214 1.1-1.211.38L5.398 4.68Z"/><path fill="#468CFB" d="M8.705 8.813 7.156 6.877l1.424-1.48 2.026 1.441-.586 1.259-1.315.716Z"/><path fill="#F9C23C" d="m6.293 3.77-.886.92-1.536-1.92c-.217-.271.125-.633.408-.431L6.293 3.77Z"/><path fill="#8D65C5" d="M10.554 6.801 13.21 8.69c1.083 2.647-1.064 3.045-2.272 2.913L8.665 8.763l1.89-1.962Z"/><path fill="#5092FF" d="M11.5 6.781c1.219-1.603 6.658-2.529 3.608.431-1.81 1.76-1.054 3.632-3.374 4.632-3.906 1.484-5.046-1.719-4.64-2.125.406-.406 1.317.463 2.422 0 .686-.288.765-1.335 1.984-2.938Z"/><path fill="#EFD5FF" d="m5.784 23.35 8.62-1.88c.149-.036.299-.077.45-.123-3.56 4.081-4.006 8.637-4.006 8.637h15.33c2.14 0 3.82-2.082 3.62-4.222-.598-6.319-2.785-17.951-10.829-18.03-1.607-1.224-3.467-1.52-4.586-.402-3.417 3.418-6.626 6.976-8.794 9.38-.674.748-1.247 1.384-1.695 1.87-1.89 2.049-1.45 3.73.22 4.58.51.26 1.11.31 1.67.19Z"/><path fill="#FF6DC6" d="M29.906 16.969c0-3.657-2.323-4.209-3.218-4.188.197.792.28 3.3-.97 7S25.5 28.25 26.189 30c2.671 0 3.718-.344 3.718-2.281v-10.75Z"/><path fill="#C790F1" d="M27.375 17.281c1.063-4-1.875-8.156-4.188-8.156.813 1.854 1.313 6.219 0 8.344C21.692 19.89 21.453 26.5 22.203 30h4.75c-1.7-4.825-.64-8.719.422-12.719Z"/><path fill="#BCA4EB" d="M14.906 21.281c7.719-6.406 3.656-11.968-1.437-13.03 7.187-5.47 8.864 5.416 7.594 9.124-2.157 2.313-6.157 3.906-6.157 3.906Z"/><path fill="#5092FF" d="M22.797 29.984h-6.625c-1.59-6.76 3.796-11.262 4.156-16.302.4-5.73-3.74-6.79-3.74-6.79-1.32.33 1.01 1.25-1.58 1.25l-.68-1.45-.687-1.13c1.64-.45 3.842-.827 6.359.407 3.1 1.518 5.753 5.488 4.688 9.562-1.063 4.063-3.579 6.992-1.891 14.453Z"/><path fill="#8D65C5" d="M22.797 29.984h-1.413c-.332-1-.608-2.608-.571-4.484.056-2.898.682-4.505 2.157-8.296L23.438 16c1.45-3.75-.709-7.5-1.688-8.75l.165.024c2.158 1.934 3.608 5.064 2.773 8.257-.257.981-.598 1.896-.945 2.824-1.088 2.918-2.226 5.97-.946 11.63ZM27.375 17.281c.53-1.993.066-4.025-.82-5.562H26.5c.05.282.115.581.184.895.304 1.39.672 3.07.035 4.855l-.004.01c-.824 2.308-2.464 6.9-2.059 9.49.215 1.37.623 2.48.867 3.031h1.43c-1.686-4.785-.658-8.654.396-12.62l.026-.099Z"/><path fill="#EFD5FF" d="M15.578 9.016c-1.86.25-2.384-.704-2.5-2.454-.115-1.75-.087-2.26-.087-2.26 0-.34.41-.51.65-.27 0 0 3.28 2.593 3.421 3.53.141.938-.71 1.35-1.484 1.454Z"/><path fill="#1C1C1C" d="M12 12a1 1 0 0 0-1 1v1a1 1 0 1 0 2 0v-1a1 1 0 0 0-1-1ZM4.91 20.301c-.3.3-.8.3-1.1 0l1.1-1.1c.3.31.3.8 0 1.1ZM8.687 22.717l-1.864.406a1.794 1.794 0 0 0 1.114-1.972.512.512 0 1 1 1.008-.173c.106.615.003 1.22-.258 1.739Z"/></svg>
